gilbertguide/assets/images/item_9738.svg

<?xml version="1.0" standalone="no"?><!DOCTYPE svg PUBLIC "-//W3C//DTD SVG 1.1//EN" "http://www.w3.org/Graphics/SVG/1.1/DTD/svg11.dtd"><svg xmlns="http://www.w3.org/2000/svg" version="1.1" width="195.5px" height="54px" viewBox="0 0 195.5 54"><desc>Getting there</desc><defs/><g id="Polygon11419"><path d="m50.1 29.5c-.8.3-2.2.6-3.6.6c-2 0-3.4-.5-4.4-1.4c-1-1-1.5-2.4-1.5-4c0-3.5 2.6-5.6 6.1-5.6c1.4 0 2.5.3 3 .5c0 0-.5 2-.5 2c-.6-.3-1.3-.5-2.5-.5c-2 0-3.6 1.2-3.6 3.5c0 2.2 1.4 3.5 3.4 3.5c.6 0 1 0 1.2-.1c.01 0 0-2.3 0-2.3l-1.7 0l0-1.9l4.1 0c0 0-.04 5.7 0 5.7zm3.8-2.6c0 1 1 1.5 2.2 1.5c.8 0 1.5-.2 2.1-.4c0 0 .3 1.7.3 1.7c-.8.3-1.7.5-2.8.5c-2.6 0-4.2-1.6-4.2-4c0-2 1.3-4.2 4-4.2c2.5 0 3.5 2 3.5 3.9c0 .4-.1.8-.1 1c0 0-5 0-5 0zm2.8-1.7c0-.6-.2-1.6-1.4-1.6c-1 0-1.4 1-1.5 1.6c0 0 2.9 0 2.9 0zm6.5-5.1l0 2.1l1.7 0l0 1.8l-1.7 0c0 0-.05 2.8 0 2.8c0 .9.2 1.4.9 1.4c.3 0 .5 0 .7-.1c0 0 0 1.9 0 1.9c-.3.1-.8.2-1.5.2c-.8 0-1.5-.3-1.9-.7c-.4-.5-.6-1.2-.6-2.3c-.03-.03 0-3.2 0-3.2l-1.1 0l0-1.8l1.1 0l0-1.5l2.4-.6zm5.8 0l0 2.1l1.8 0l0 1.8l-1.8 0c0 0 .02 2.8 0 2.8c0 .9.3 1.4 1 1.4c.3 0 .5 0 .7-.1c0 0 0 1.9 0 1.9c-.3.1-.9.2-1.5.2c-.8 0-1.5-.3-1.9-.7c-.4-.5-.7-1.2-.7-2.3c.04-.03 0-3.2 0-3.2l-1 0l0-1.8l1 0l0-1.5l2.4-.6zm3.2 9.9l0-7.8l2.4 0l0 7.8l-2.4 0zm2.5-10c0 .7-.5 1.2-1.3 1.2c-.8 0-1.3-.5-1.3-1.2c0-.7.5-1.2 1.3-1.2c.8 0 1.3.5 1.3 1.2zm1.9 4.7c0-1-.1-1.8-.1-2.5c0-.02 2.1 0 2.1 0l.1 1.1c0 0 .07-.04.1 0c.3-.5 1.1-1.3 2.4-1.3c1.6 0 2.8 1.1 2.8 3.4c-.02-.02 0 4.6 0 4.6l-2.4 0c0 0-.05-4.34 0-4.3c0-1-.4-1.7-1.3-1.7c-.7 0-1.1.4-1.2.9c-.1.1-.1.4-.1.6c-.01-.01 0 4.5 0 4.5l-2.4 0c0 0-.04-5.33 0-5.3zm16.7 4.2c0 1.5-.3 2.7-1.2 3.5c-.8.7-2 .9-3.1.9c-1.1 0-2.1-.2-2.8-.5c0 0 .4-1.9.4-1.9c.5.3 1.4.6 2.3.6c1.2 0 2-.6 2-2.1c.04.02 0-.5 0-.5c0 0 .01.03 0 0c-.5.7-1.2 1-2.1 1c-1.9 0-3.3-1.5-3.3-3.8c0-2.5 1.6-4.1 3.5-4.1c1.1 0 1.8.5 2.2 1.1c-.02.02 0 0 0 0l.1-.9c0 0 2.11-.02 2.1 0c0 .5-.1 1.1-.1 2.3c0 0 0 4.4 0 4.4zm-2.4-3.5c0-.2 0-.3 0-.5c-.2-.6-.7-1.1-1.3-1.1c-.9 0-1.6.8-1.6 2.3c0 1.1.5 2 1.5 2c.7 0 1.2-.4 1.3-.9c.1-.2.1-.5.1-.7c0 0 0-1.1 0-1.1zm10.3-5.3l0 2.1l1.8 0l0 1.8l-1.8 0c0 0 .05 2.8 0 2.8c0 .9.3 1.4 1 1.4c.3 0 .5 0 .7-.1c0 0 0 1.9 0 1.9c-.3.1-.9.2-1.5.2c-.8 0-1.5-.3-1.9-.7c-.4-.5-.6-1.2-.6-2.3c-.04-.03 0-3.2 0-3.2l-1.1 0l0-1.8l1.1 0l0-1.5l2.3-.6zm3.2-1.5l2.4 0l0 4.5c0 0 .06.02.1 0c.2-.3.5-.6.9-.8c.4-.2.8-.3 1.3-.3c1.5 0 2.7 1.1 2.7 3.4c.02.04 0 4.6 0 4.6l-2.4 0c0 0-.01-4.3 0-4.3c0-1-.4-1.7-1.3-1.7c-.6 0-1 .4-1.2.8c-.1.2-.1.4-.1.6c.03-.04 0 4.6 0 4.6l-2.4 0l0-11.4zm11.2 8.3c.1 1 1.1 1.5 2.3 1.5c.8 0 1.5-.2 2.1-.4c0 0 .3 1.7.3 1.7c-.8.3-1.7.5-2.8.5c-2.7 0-4.2-1.6-4.2-4c0-2 1.3-4.2 4-4.2c2.5 0 3.5 2 3.5 3.9c0 .4-.1.8-.1 1c0 0-5.1 0-5.1 0zm2.9-1.7c0-.6-.2-1.6-1.4-1.6c-1 0-1.4 1-1.5 1.6c0 0 2.9 0 2.9 0zm3.7-.4c0-1.2 0-2 0-2.6c-.04-.02 2 0 2 0l.1 1.4c0 0 .1.02.1 0c.4-1.1 1.3-1.6 2.1-1.6c.2 0 .3 0 .5 0c0 0 0 2.3 0 2.3c-.2 0-.4 0-.6 0c-.9 0-1.5.4-1.7 1.2c0 .1 0 .3 0 .5c-.05.03 0 4 0 4l-2.5 0c0 0 .02-5.25 0-5.2zm7.8 2.1c.1 1 1.1 1.5 2.3 1.5c.8 0 1.5-.2 2.1-.4c0 0 .3 1.7.3 1.7c-.8.3-1.7.5-2.8.5c-2.7 0-4.2-1.6-4.2-4c0-2 1.3-4.2 4-4.2c2.5 0 3.5 2 3.5 3.9c0 .4-.1.8-.1 1c0 0-5.1 0-5.1 0zm2.9-1.7c0-.6-.2-1.6-1.4-1.6c-1 0-1.4 1-1.5 1.6c0 0 2.9 0 2.9 0z" stroke="none" fill="#fff"/></g></svg>

<?xml version="1.0" standalone="no"?><!DOCTYPE svg PUBLIC "-//W3C//DTD SVG 1.1//EN" "http://www.w3.org/Graphics/SVG/1.1/DTD/svg11.dtd"><svg xmlns="http://www.w3.org/2000/svg" version="1.1" width="219.4px" height="54px" viewBox="0 0 219.4 54">  <desc>Getting there</desc>  <defs/>  <g id="Polygon11295">    <path d="M 50.1 29.5 C 49.3 29.8 47.9 30.1 46.5 30.1 C 44.5 30.1 43.1 29.6 42.1 28.7 C 41.1 27.7 40.6 26.3 40.6 24.7 C 40.6 21.2 43.2 19.1 46.7 19.1 C 48.1 19.1 49.2 19.4 49.7 19.6 C 49.7 19.6 49.2 21.6 49.2 21.6 C 48.6 21.3 47.9 21.1 46.7 21.1 C 44.7 21.1 43.1 22.3 43.1 24.6 C 43.1 26.8 44.5 28.1 46.5 28.1 C 47.1 28.1 47.5 28.1 47.7 28 C 47.71 28 47.7 25.7 47.7 25.7 L 46 25.7 L 46 23.8 L 50.1 23.8 C 50.1 23.8 50.06 29.5 50.1 29.5 Z M 53.9 26.9 C 53.9 27.9 54.9 28.4 56.1 28.4 C 56.9 28.4 57.6 28.2 58.2 28 C 58.2 28 58.5 29.7 58.5 29.7 C 57.7 30 56.8 30.2 55.7 30.2 C 53.1 30.2 51.5 28.6 51.5 26.2 C 51.5 24.2 52.8 22 55.5 22 C 58 22 59 24 59 25.9 C 59 26.3 58.9 26.7 58.9 26.9 C 58.9 26.9 53.9 26.9 53.9 26.9 Z M 56.7 25.2 C 56.7 24.6 56.5 23.6 55.3 23.6 C 54.3 23.6 53.9 24.6 53.8 25.2 C 53.8 25.2 56.7 25.2 56.7 25.2 Z M 63.2 20.1 L 63.2 22.2 L 64.9 22.2 L 64.9 24 L 63.2 24 C 63.2 24 63.15 26.8 63.2 26.8 C 63.2 27.7 63.4 28.2 64.1 28.2 C 64.4 28.2 64.6 28.2 64.8 28.1 C 64.8 28.1 64.8 30 64.8 30 C 64.5 30.1 64 30.2 63.3 30.2 C 62.5 30.2 61.8 29.9 61.4 29.5 C 61 29 60.8 28.3 60.8 27.2 C 60.77 27.17 60.8 24 60.8 24 L 59.7 24 L 59.7 22.2 L 60.8 22.2 L 60.8 20.7 L 63.2 20.1 Z M 69 20.1 L 69 22.2 L 70.8 22.2 L 70.8 24 L 69 24 C 69 24 69.02 26.8 69 26.8 C 69 27.7 69.3 28.2 70 28.2 C 70.3 28.2 70.5 28.2 70.7 28.1 C 70.7 28.1 70.7 30 70.7 30 C 70.4 30.1 69.8 30.2 69.2 30.2 C 68.4 30.2 67.7 29.9 67.3 29.5 C 66.9 29 66.6 28.3 66.6 27.2 C 66.64 27.17 66.6 24 66.6 24 L 65.6 24 L 65.6 22.2 L 66.6 22.2 L 66.6 20.7 L 69 20.1 Z M 72.2 30 L 72.2 22.2 L 74.6 22.2 L 74.6 30 L 72.2 30 Z M 74.7 20 C 74.7 20.7 74.2 21.2 73.4 21.2 C 72.6 21.2 72.1 20.7 72.1 20 C 72.1 19.3 72.6 18.8 73.4 18.8 C 74.2 18.8 74.7 19.3 74.7 20 Z M 76.6 24.7 C 76.6 23.7 76.5 22.9 76.5 22.2 C 76.5 22.18 78.6 22.2 78.6 22.2 L 78.7 23.3 C 78.7 23.3 78.77 23.26 78.8 23.3 C 79.1 22.8 79.9 22 81.2 22 C 82.8 22 84 23.1 84 25.4 C 83.98 25.38 84 30 84 30 L 81.6 30 C 81.6 30 81.55 25.66 81.6 25.7 C 81.6 24.7 81.2 24 80.3 24 C 79.6 24 79.2 24.4 79.1 24.9 C 79 25 79 25.3 79 25.5 C 78.99 25.49 79 30 79 30 L 76.6 30 C 76.6 30 76.56 24.67 76.6 24.7 Z M 93.3 28.9 C 93.3 30.4 93 31.6 92.1 32.4 C 91.3 33.1 90.1 33.3 89 33.3 C 87.9 33.3 86.9 33.1 86.2 32.8 C 86.2 32.8 86.6 30.9 86.6 30.9 C 87.1 31.2 88 31.5 88.9 31.5 C 90.1 31.5 90.9 30.9 90.9 29.4 C 90.94 29.42 90.9 28.9 90.9 28.9 C 90.9 28.9 90.91 28.93 90.9 28.9 C 90.4 29.6 89.7 29.9 88.8 29.9 C 86.9 29.9 85.5 28.4 85.5 26.1 C 85.5 23.6 87.1 22 89 22 C 90.1 22 90.8 22.5 91.2 23.1 C 91.18 23.12 91.2 23.1 91.2 23.1 L 91.3 22.2 C 91.3 22.2 93.41 22.18 93.4 22.2 C 93.4 22.7 93.3 23.3 93.3 24.5 C 93.3 24.5 93.3 28.9 93.3 28.9 Z M 90.9 25.4 C 90.9 25.2 90.9 25.1 90.9 24.9 C 90.7 24.3 90.2 23.8 89.6 23.8 C 88.7 23.8 88 24.6 88 26.1 C 88 27.2 88.5 28.1 89.5 28.1 C 90.2 28.1 90.7 27.7 90.8 27.2 C 90.9 27 90.9 26.7 90.9 26.5 C 90.9 26.5 90.9 25.4 90.9 25.4 Z M 101.2 20.1 L 101.2 22.2 L 103 22.2 L 103 24 L 101.2 24 C 101.2 24 101.25 26.8 101.2 26.8 C 101.2 27.7 101.5 28.2 102.2 28.2 C 102.5 28.2 102.7 28.2 102.9 28.1 C 102.9 28.1 102.9 30 102.9 30 C 102.6 30.1 102 30.2 101.4 30.2 C 100.6 30.2 99.9 29.9 99.5 29.5 C 99.1 29 98.9 28.3 98.9 27.2 C 98.86 27.17 98.9 24 98.9 24 L 97.8 24 L 97.8 22.2 L 98.9 22.2 L 98.9 20.7 L 101.2 20.1 Z M 104.4 18.6 L 106.8 18.6 L 106.8 23.1 C 106.8 23.1 106.86 23.12 106.9 23.1 C 107.1 22.8 107.4 22.5 107.8 22.3 C 108.2 22.1 108.6 22 109.1 22 C 110.6 22 111.8 23.1 111.8 25.4 C 111.82 25.44 111.8 30 111.8 30 L 109.4 30 C 109.4 30 109.39 25.7 109.4 25.7 C 109.4 24.7 109 24 108.1 24 C 107.5 24 107.1 24.4 106.9 24.8 C 106.8 25 106.8 25.2 106.8 25.4 C 106.83 25.36 106.8 30 106.8 30 L 104.4 30 L 104.4 18.6 Z M 115.6 26.9 C 115.7 27.9 116.7 28.4 117.9 28.4 C 118.7 28.4 119.4 28.2 120 28 C 120 28 120.3 29.7 120.3 29.7 C 119.5 30 118.6 30.2 117.5 30.2 C 114.8 30.2 113.3 28.6 113.3 26.2 C 113.3 24.2 114.6 22 117.3 22 C 119.8 22 120.8 24 120.8 25.9 C 120.8 26.3 120.7 26.7 120.7 26.9 C 120.7 26.9 115.6 26.9 115.6 26.9 Z M 118.5 25.2 C 118.5 24.6 118.3 23.6 117.1 23.6 C 116.1 23.6 115.7 24.6 115.6 25.2 C 115.6 25.2 118.5 25.2 118.5 25.2 Z M 122.2 24.8 C 122.2 23.6 122.2 22.8 122.2 22.2 C 122.16 22.18 124.2 22.2 124.2 22.2 L 124.3 23.6 C 124.3 23.6 124.4 23.62 124.4 23.6 C 124.8 22.5 125.7 22 126.5 22 C 126.7 22 126.8 22 127 22 C 127 22 127 24.3 127 24.3 C 126.8 24.3 126.6 24.3 126.4 24.3 C 125.5 24.3 124.9 24.7 124.7 25.5 C 124.7 25.6 124.7 25.8 124.7 26 C 124.65 26.03 124.7 30 124.7 30 L 122.2 30 C 122.2 30 122.22 24.75 122.2 24.8 Z M 130 26.9 C 130.1 27.9 131.1 28.4 132.3 28.4 C 133.1 28.4 133.8 28.2 134.4 28 C 134.4 28 134.7 29.7 134.7 29.7 C 133.9 30 133 30.2 131.9 30.2 C 129.2 30.2 127.7 28.6 127.7 26.2 C 127.7 24.2 129 22 131.7 22 C 134.2 22 135.2 24 135.2 25.9 C 135.2 26.3 135.1 26.7 135.1 26.9 C 135.1 26.9 130 26.9 130 26.9 Z M 132.9 25.2 C 132.9 24.6 132.7 23.6 131.5 23.6 C 130.5 23.6 130.1 24.6 130 25.2 C 130 25.2 132.9 25.2 132.9 25.2 Z " stroke="none" fill="#fff"/>  </g></svg>
